X: 88
T:Gilderoy a Quickstep. JMP.088
M:C|
L:1/8
Q:120
S:John Miller MS. Perth, 1799.(for the fife)
R:March
O:Scotland
A:Scotland
N:1 - squiggle under the note  2 - Sharp shown in front of the note, then
N:a flat over it
N:3 - either the last note has to be dotted or  the lead-in note has to
N:be a croche
H:1799
Z:vmp.C. Graebe
K:A minor
E|AGAB cBcd | e2 dc d2 c>d | e2G2 cAGE | G4 G2 cB |!
A^GAB cBcd | ede"1"f e2ae | gfed cBA^G | A4 "3"A2 :|!
|:(e/f/) | gfga agfe | fedc d2 c>d | e2 G2 cAGE | G4 G2 cB |!
A^GAB cBcd | edef e2 ae | gfed cBA^G | A4"3"A2 :|]
